optimized/24/outline/emoji-sleep.svg

<svg xmlns="http://www.w3.org/2000/svg" fill="none" viewBox="0 0 24 24">
  <path stroke-linecap="round" d="M7.5837 13.1674C8.64483 13.6822 9.21267 13.6525 10.1892 13.1674M14.2904 13.6258C15.3078 14.2331 15.8784 14.2723 16.8959 13.6258M13.3461 7.81171H13.9974H14.6488H15.9516C16.3858 7.81171 12.9118 10.4172 13.3461 10.4172H15.9516M18.3569 4H20.9623C21.3966 4 17.9226 6.60547 18.3569 6.60547H20.9623M19.5013 12.709C19.5013 17.2658 15.8074 20.9597 11.2507 20.9597C6.69395 20.9597 3 17.2658 3 12.709C3 8.15232 6.69395 4.45837 11.2507 4.45837C15.8074 4.45837 19.5013 8.15232 19.5013 12.709ZM14.218 17.2927C14.218 18.1561 13.9285 17.3802 12.095 17.3802C10.2615 17.3802 9.87555 18.1561 9.87555 17.2927C9.87555 16.4294 10.8959 16.0051 12.095 16.0051C13.2942 16.0051 14.218 16.4294 14.218 17.2927Z"/>
</svg>

<svg xmlns="http://www.w3.org/2000/svg" fill="none" viewBox="0 0 24 24" stroke-width="1.5" stroke="currentColor" aria-hidden="true">
  <path stroke-linecap="round" d="M7.584 13.167c1.06.515 1.629.486 2.605 0m4.101.459c1.018.607 1.588.646 2.606 0m-3.55-5.814h2.606c.434 0-3.04 2.605-2.606 2.605h2.606M18.357 4h2.605c.435 0-3.04 2.605-2.605 2.605h2.605m-1.46 6.104a8.25 8.25 0 11-16.502 0 8.25 8.25 0 0116.501 0zm-5.284 4.584c0 .863-.29.087-2.123.087-1.834 0-2.22.776-2.22-.087 0-.864 1.02-1.288 2.22-1.288 1.2 0 2.123.424 2.123 1.288z"/>
</svg>
